libs/ui/packages/crypto-icons/src/svg/BTX.svg

<svg width="24" height="24" viewBox="0 0 24 24" fill="none">
<path d="M15.5317 10.5337C15.3615 11.685 14.7232 12.2422 13.8765 12.4372C15.039 13.0425 15.6315 13.9717 15.0675 15.5812C14.3677 17.5807 12.7057 17.7487 10.4955 17.331L9.95771 19.4812L8.66171 19.158L9.19121 17.037C8.84575 16.9512 8.50123 16.8617 8.15771 16.7685L7.62671 18.9L6.33146 18.5775L6.86846 16.4227C6.56546 16.3455 6.25796 16.263 5.94371 16.1842L4.25696 15.7642L4.90046 14.2792C4.90046 14.2792 5.85596 14.5342 5.84246 14.5147C6.20996 14.6055 6.37271 14.3662 6.43721 14.2072L7.28471 10.8082L7.42196 10.842C7.37795 10.8248 7.33285 10.8105 7.28696 10.7992L7.89146 8.37299C7.90721 8.09699 7.81271 7.75049 7.28771 7.61849C7.30796 7.60499 6.34571 7.38449 6.34571 7.38449L6.69071 5.99999L8.47871 6.44624L8.47721 6.45374C8.74571 6.51974 9.02321 6.58349 9.30521 6.64799L9.83696 4.51874L11.133 4.84124L10.6125 6.92924C10.9597 7.00874 11.31 7.08824 11.6505 7.17374L12.168 5.09999L13.464 5.42249L12.933 7.55249C14.5702 8.11649 15.7672 8.96174 15.5317 10.5337ZM12.5692 14.6872C12.9892 13.0087 10.1707 12.5745 9.29171 12.3547L8.57996 15.2085C9.45896 15.4267 12.1695 16.2975 12.57 14.6872H12.5692ZM12.9705 10.5105C13.3515 8.98274 10.995 8.64299 10.263 8.45999L9.61796 11.0482C10.3492 11.2312 12.6052 11.9752 12.9705 10.5105ZM16.743 16.2322C16.6801 16.2238 16.6162 16.2279 16.555 16.2443C16.4937 16.2606 16.4363 16.2889 16.386 16.3275C16.2885 16.4111 16.2224 16.5253 16.1985 16.6515C16.1831 16.7216 16.178 16.7936 16.1835 16.8652C16.1899 16.9468 16.2162 17.0256 16.26 17.0947C16.305 17.1697 16.377 17.2402 16.4745 17.3062C16.572 17.3715 16.707 17.424 16.8795 17.4637C16.9725 17.4862 17.0685 17.4967 17.1667 17.496C17.2657 17.496 17.3572 17.4802 17.4412 17.4487C17.53 17.4174 17.6092 17.3635 17.671 17.2924C17.7328 17.2213 17.7751 17.1353 17.7937 17.043C17.8114 16.9771 17.8159 16.9084 17.8069 16.8409C17.7979 16.7733 17.7755 16.7081 17.7412 16.6492C17.6722 16.5337 17.559 16.4452 17.4007 16.3837L17.5162 15.8842C17.8012 15.999 18.0007 16.1632 18.1162 16.3755C18.2317 16.5885 18.2557 16.8412 18.1882 17.1337C18.154 17.2959 18.0863 17.4492 17.9895 17.5837C17.9024 17.7024 17.7908 17.8009 17.6623 17.8726C17.5338 17.9443 17.3914 17.9875 17.2447 17.9992C17.0834 18.0138 16.9207 18.0019 16.7632 17.964C16.6012 17.9278 16.4456 17.8671 16.302 17.784C16.1695 17.7081 16.0539 17.606 15.9622 17.484C15.873 17.3627 15.812 17.2231 15.7837 17.0752C15.7534 16.9056 15.7598 16.7315 15.8025 16.5645C15.8312 16.4377 15.8774 16.3155 15.9397 16.2015C16.0005 16.0905 16.0747 15.9967 16.164 15.9202C16.2525 15.8437 16.3545 15.7882 16.47 15.7537C16.5862 15.7185 16.7152 15.7117 16.8585 15.732L16.743 16.2322ZM18.762 14.6475C18.7266 14.8142 18.658 14.9721 18.5602 15.1117C18.468 15.2392 18.3577 15.3397 18.2302 15.414C18.0983 15.4889 17.9522 15.5354 17.8012 15.5505C17.6337 15.5672 17.4646 15.5556 17.301 15.516C17.138 15.48 16.9822 15.4166 16.8405 15.3285C16.7115 15.2488 16.6006 15.143 16.515 15.018C16.4309 14.8923 16.3746 14.7502 16.35 14.601C16.3235 14.4329 16.3312 14.2613 16.3725 14.0962C16.4078 13.9295 16.4764 13.7716 16.5742 13.632C16.6672 13.5045 16.7767 13.4032 16.905 13.3297C17.0369 13.2548 17.183 13.2083 17.334 13.1932C17.4915 13.176 17.6565 13.1872 17.829 13.227C17.9934 13.263 18.1506 13.3263 18.294 13.4145C18.429 13.5 18.537 13.6035 18.6195 13.7257C18.702 13.848 18.7567 13.9867 18.7845 14.142C18.811 14.3103 18.8034 14.4822 18.762 14.6475ZM16.794 12.549L16.9027 12.0802L17.3407 12.1815L17.343 12.1725C17.2818 12.141 17.2275 12.0977 17.1832 12.045C17.0814 11.9266 17.014 11.7827 16.9882 11.6287C16.9756 11.551 16.9782 11.4715 16.9957 11.3947C17.0093 11.3314 17.0284 11.2695 17.0527 11.2095L17.535 11.3205C17.5209 11.3549 17.5077 11.3897 17.4952 11.4247C17.4826 11.4593 17.4721 11.4946 17.4637 11.5305C17.443 11.6128 17.4411 11.6987 17.4583 11.7818C17.4754 11.8649 17.5111 11.9431 17.5627 12.0105C17.6211 12.086 17.6934 12.1496 17.7757 12.198C17.865 12.2527 17.9722 12.2947 18.0982 12.324L19.1767 12.573L19.0612 13.0725L16.794 12.549ZM18.504 10.9065C18.591 10.9275 18.6787 10.9342 18.7665 10.929C18.8498 10.9238 18.9313 10.9024 19.0065 10.866C19.081 10.8295 19.1464 10.7767 19.1977 10.7115C19.2556 10.6351 19.2956 10.5467 19.3147 10.4527C19.3495 10.3294 19.3451 10.1984 19.302 10.0777C19.2533 9.96669 19.1705 9.87398 19.0657 9.81299L19.1745 9.33974C19.3371 9.41369 19.4762 9.53125 19.5761 9.67939C19.6761 9.82752 19.733 10.0004 19.7407 10.179C19.7482 10.299 19.7377 10.4205 19.71 10.5435C19.6687 10.722 19.6027 10.8735 19.5127 10.9972C19.4262 11.1187 19.3138 11.2194 19.1835 11.2921C19.0533 11.3647 18.9085 11.4075 18.7597 11.4172C18.4312 11.4435 18.1027 11.3658 17.8207 11.1952C17.6918 11.1146 17.5793 11.0103 17.4892 10.8877C17.4015 10.7668 17.3399 10.6288 17.3085 10.4827C17.2747 10.3342 17.2785 10.1752 17.3167 10.005C17.3525 9.83749 17.429 9.68139 17.5395 9.55049C17.643 9.42915 17.7717 9.33188 17.9167 9.26549C18.065 9.19983 18.2248 9.16414 18.387 9.16049C18.5565 9.15449 18.723 9.18149 18.888 9.24074L18.5032 10.9072L18.504 10.9065ZM18.3675 14.5567C18.3922 14.4606 18.3922 14.3599 18.3676 14.2638C18.3429 14.1676 18.2944 14.0793 18.2265 14.007C18.1609 13.9354 18.0832 13.876 17.997 13.8315C17.818 13.7373 17.6178 13.6908 17.4157 13.6965C17.3187 13.6983 17.2229 13.7179 17.133 13.7542C17.0406 13.7899 16.9587 13.8482 16.8949 13.9238C16.831 13.9995 16.7873 14.09 16.7677 14.187C16.7427 14.2827 16.7423 14.3832 16.7664 14.4792C16.7905 14.5751 16.8384 14.6634 16.9057 14.736C16.968 14.8065 17.0445 14.8642 17.1352 14.9115C17.3143 15.0053 17.5144 15.0517 17.7165 15.0465C17.8136 15.0441 17.9096 15.0245 18 14.9887C18.0926 14.9535 18.1749 14.8954 18.2392 14.8199C18.3034 14.7444 18.3475 14.6539 18.3675 14.5567ZM18.444 9.66449C18.3645 9.65208 18.2836 9.65132 18.204 9.66224C18.1281 9.67073 18.0547 9.69411 17.9879 9.73105C17.9211 9.76799 17.8622 9.81775 17.8147 9.87749C17.7655 9.94396 17.7302 10.0197 17.7109 10.1001C17.6916 10.1805 17.6886 10.2639 17.7022 10.3455C17.7172 10.4242 17.745 10.4955 17.787 10.5592C17.8796 10.6934 18.0171 10.79 18.1747 10.8315L18.444 9.66449Z" fill="#FB2EA3"/>
</svg>

<svg width="24" height="24" viewBox="0 0 24 24" fill="none"><path fill="#fb2ea3" d="M15.532 10.534c-.17 1.151-.809 1.708-1.655 1.903 1.162.606 1.755 1.535 1.19 3.144-.7 2-2.361 2.168-4.571 1.75l-.538 2.15-1.296-.323.53-2.121q-.518-.129-1.034-.268L7.627 18.9l-1.296-.322.537-2.155c-.303-.077-.61-.16-.924-.239l-1.687-.42.643-1.485s.956.255.942.236c.368.09.53-.149.595-.308l.848-3.399.137.034a1 1 0 0 0-.135-.043l.604-2.426c.016-.276-.078-.623-.603-.755.02-.013-.942-.234-.942-.234L6.69 6l1.788.446-.002.008q.404.099.828.194l.532-2.13 1.296.323-.52 2.088c.347.08.697.16 1.037.245l.518-2.074 1.296.322-.531 2.13c1.637.564 2.834 1.41 2.599 2.982m-2.963 4.153c.42-1.678-2.398-2.112-3.277-2.332l-.712 2.854c.879.218 3.59 1.088 3.99-.522m.401-4.176c.381-1.528-1.975-1.868-2.707-2.051l-.645 2.588c.731.183 2.987.927 3.352-.537m3.773 5.721a.48.48 0 0 0-.357.096.56.56 0 0 0-.187.323.7.7 0 0 0-.016.214q.01.124.077.23a.7.7 0 0 0 .214.211q.147.098.406.158.14.033.287.032.148 0 .274-.047a.54.54 0 0 0 .353-.406.52.52 0 0 0-.053-.394.65.65 0 0 0-.34-.265l.115-.5q.427.174.6.491.174.32.072.759a1.2 1.2 0 0 1-.198.45 1.03 1.03 0 0 1-.745.415 1.63 1.63 0 0 1-.943-.215 1.1 1.1 0 0 1-.34-.3 1 1 0 0 1-.178-.409 1.4 1.4 0 0 1 .156-.874 1 1 0 0 1 .224-.28.8.8 0 0 1 .306-.167.9.9 0 0 1 .389-.022zm2.019-1.584a1.3 1.3 0 0 1-.202.464 1.1 1.1 0 0 1-.33.302 1.1 1.1 0 0 1-.429.136 1.5 1.5 0 0 1-.5-.034 1.5 1.5 0 0 1-.46-.187 1.06 1.06 0 0 1-.49-.727 1.3 1.3 0 0 1 .021-.506c.036-.166.104-.324.202-.464q.14-.191.331-.302c.132-.075.278-.122.429-.137q.236-.026.495.034c.164.036.322.1.465.188q.202.128.325.31.124.184.166.417c.026.168.018.34-.023.506m-1.968-2.099.109-.469.438.101.002-.008a.5.5 0 0 1-.16-.128.86.86 0 0 1-.195-.416.6.6 0 0 1 .008-.234 1 1 0 0 1 .057-.185l.482.11-.04.105a1 1 0 0 0-.031.105.56.56 0 0 0 .099.48.8.8 0 0 0 .213.188q.133.082.322.126l1.079.249-.116.5zm1.71-1.642a1 1 0 0 0 .262.022.6.6 0 0 0 .24-.063.55.55 0 0 0 .192-.155.64.64 0 0 0 .117-.258.6.6 0 0 0-.013-.375.57.57 0 0 0-.236-.265l.108-.473a.97.97 0 0 1 .567.839q.01.18-.031.364-.062.268-.197.454a1 1 0 0 1-.753.42 1.57 1.57 0 0 1-.94-.222 1.2 1.2 0 0 1-.33-.307 1.08 1.08 0 0 1-.172-.883c.034-.168.111-.324.221-.455.104-.12.233-.218.378-.285a1.33 1.33 0 0 1 .971-.025zm-.137 3.65a.59.59 0 0 0-.14-.55.8.8 0 0 0-.23-.175 1.2 1.2 0 0 0-.581-.136.8.8 0 0 0-.283.058.59.59 0 0 0-.365.433.59.59 0 0 0 .138.549q.093.105.23.175c.178.094.378.14.58.136a.8.8 0 0 0 .284-.058.59.59 0 0 0 .367-.432m.077-4.893a.8.8 0 0 0-.24-.002.58.58 0 0 0-.39.215.62.62 0 0 0-.112.468.6.6 0 0 0 .085.214c.093.134.23.231.388.273z"/></svg>
